assets/svgs/solid/layer-group.svg

<svg xmlns="http://www.w3.org/2000/svg" viewBox="0 0 512 512"><!-- Font Awesome Free 5.15.4 by @fontawesome - https://fontawesome.com License - https://fontawesome.com/license/free (Icons: CC BY 4.0, Fonts: SIL OFL 1.1, Code: MIT License) --><path d="M12.41 148.02l232.94 105.67c6.8 3.09 14.49 3.09 21.29 0l232.94-105.67c16.55-7.51 16.55-32.52 0-40.03L266.65 2.31a25.607 25.607 0 0 0-21.29 0L12.41 107.98c-16.55 7.51-16.55 32.53 0 40.04zm487.18 88.28l-58.09-26.33-161.64 73.27c-7.56 3.43-15.59 5.17-23.86 5.17s-16.29-1.74-23.86-5.17L70.51 209.97l-58.1 26.33c-16.55 7.5-16.55 32.5 0 40l232.94 105.59c6.8 3.08 14.49 3.08 21.29 0L499.59 276.3c16.55-7.5 16.55-32.5 0-40zm0 127.8l-57.87-26.23-161.86 73.37c-7.56 3.43-15.59 5.17-23.86 5.17s-16.29-1.74-23.86-5.17L70.29 337.87 12.41 364.1c-16.55 7.5-16.55 32.5 0 40l232.94 105.59c6.8 3.08 14.49 3.08 21.29 0L499.59 404.1c16.55-7.5 16.55-32.5 0-40z"/></svg>

<svg xmlns="http://www.w3.org/2000/svg" viewBox="0 0 512 512"><!--! Font Awesome Pro 6.0.0-beta3 by @fontawesome - https://fontawesome.com License - https://fontawesome.com/license (Commercial License) Copyright 2021 Fonticons, Inc. --><path d="M499.6 236.3L441.5 210l-161.6 73.25C272.3 286.6 264.3 288.4 256 288.4S239.8 286.6 232.1 283.3L70.5 210L12.38 236.3c-16.5 7.5-16.5 32.5 0 40l233 105.6c6.75 3.125 14.5 3.125 21.25 0l233-105.6C516.1 268.8 516.1 243.8 499.6 236.3zM12.38 148l233 105.8c6.75 3 14.5 3 21.25 0L499.6 148c16.5-7.5 16.5-32.5 0-40l-233-105.8c-6.75-3-14.5-3-21.25 0L12.38 108C-4.125 115.5-4.125 140.5 12.38 148zM499.6 364.1l-57.88-26.25l-161.9 73.38C272.3 414.6 264.3 416.4 256 416.4s-16.25-1.75-23.88-5.125l-161.9-73.38l-57.88 26.25c-16.5 7.5-16.5 32.5 0 40l233 105.6c6.75 3 14.5 3 21.25 0l233-105.6C516.1 396.6 516.1 371.6 499.6 364.1z"/></svg>
